X:1
T:[ID 2-41a]
T:[ID 2-41a]
T:Bezeichnung standardisiert: Polonaise nach Blitz; Polon\"aise In dieser Quelle auch als: Polonaise In dieser Quelle auch als: Polonoise In dieser Quelle auch als: Polonoise Nach Blitz In anderer Quelle: Polonoise - Hs. \"OVLA E-97/E-149 um 1750 (Anm. S. Wascher);  Polonaise, Niederschrift L. Mozart 1762 (Anm. S. Wascher);
T:Urheber unbekannt Erstbeleg: um 1750 (Wissenschaftliche Sch\"atzung Datum in der hier transkribierten schriftlichen Quelle: 1767
C:Urheber unbekannt
C:Erstbeleg: um 1750 (Wissenschaftliche Sch\"atzung
C:Datum in der hier transkribierten schriftlichen Quelle: 1767
L:1/8
M:3/4
K:C
V:1 bass 
V:1
 C,CC,CC,C | G,,G,G,,G,C,,C, | F,,F,F,,F,E,,E, | D,,D,D,,D,C,,C, | G,,G, C,G,, C,,2 :: %5
 G,,G,G,,G,G,,G, | C,2 E,2 G,2 | G,,G,G,,G,G,,G, | C,2 E,2 G,2 | F,,F,F,,F,E,,E, | %10
 D,,D,D,,D,C,,C, | G,,G, C,G,, C,,2 :| %12

